X:295
T:Piper's Despair
Z: id:dc-reel-274
M:C
L:1/8
K:D Major
EFGA BAFA|d3c dBAF|D2FD ADFA|d3c dBAF|!
EFGA BAFA|d3c dBAF|D2FA dfaf|gfed Bee2:|!
e2ge begf|efga bfaf|dff2 aff2|dff2 afdf|!
e2ge begf|efga bfaf|dff2 abaf|gfed Bee2:|!

